svgs/light/paragraph.svg

<svg xmlns="http://www.w3.org/2000/svg" viewBox="0 0 448 512"><!-- Font Awesome Pro 6.0.0-alpha2 by @fontawesome - https://fontawesome.com License - https://fontawesome.com/license (Commercial License) --><path d="M432 32H191.996C147.744 32 105.369 50.375 75.117 82.75C44.867 115 29.367 158.5 32.367 202.625C37.867 287.625 112.244 352 197.496 352H255.996V464C255.996 472.799 263.195 480 271.996 480S287.996 472.799 287.996 464V64H351.998V464C351.998 472.799 359.197 480 367.998 480S383.998 472.799 383.998 464V64H432C440.8 64 448 56.799 448 48C448 39.199 440.8 32 432 32ZM255.996 320H191.996C121.244 320 63.992 262.75 63.992 192S121.244 64 191.996 64H255.996V320Z"/></svg>

<svg xmlns="http://www.w3.org/2000/svg" viewBox="0 0 448 512"><!--! Font Awesome Pro 6.3.0 by @fontawesome - https://fontawesome.com License - https://fontawesome.com/license (Commercial License) Copyright 2023 Fonticons, Inc. --><path d="M432 32H191.1C147.7 32 105.4 50.38 75.12 82.75C44.87 115 29.37 158.5 32.37 202.6C37.87 287.6 112.2 352 197.5 352h58.5v112c0 8.799 7.199 16 16 16s16-7.201 16-16V64h64v400c0 8.799 7.199 16 16 16s16-7.201 16-16V64H432C440.8 64 448 56.8 448 48C448 39.2 440.8 32 432 32zM255.1 320h-64c-70.75 0-128-57.25-128-128s57.25-128 128-128h64V320z"/></svg>
